icons/op-arrow-right3-24.svg

<svg width="24" height="24" viewBox="0 0 24 24" fill="none" xmlns="http://www.w3.org/2000/svg">
<path d="M19.7812 12.6827C19.8125 12.6498 19.8125 12.6169 19.8438 12.584C19.8438 12.584 19.875 12.5511 19.875 12.5182C19.875 12.4853 19.9062 12.4853 19.9062 12.4524V12.4195C19.9062 12.4195 19.9375 12.3866 19.9375 12.3537C19.9375 12.3208 19.9688 12.2879 19.9688 12.255V12.1563C19.9688 12.1234 19.9688 12.1234 20 12.0905V11.9918V11.8931C19.9688 11.8602 19.9688 11.8273 19.9688 11.7944V11.7286C19.9688 11.6957 19.9375 11.6627 19.9375 11.6298C19.9375 11.5969 19.9062 11.564 19.9062 11.564V11.5311C19.9062 11.4982 19.875 11.4653 19.875 11.4653C19.875 11.4324 19.8438 11.3995 19.8438 11.3995C19.8125 11.3666 19.8125 11.3337 19.7812 11.3008C19.7812 11.2679 19.75 11.2679 19.75 11.235L19.6875 11.1692L19.6562 11.1363L14.1875 5.34548C13.7188 4.88484 12.9688 4.88484 12.5312 5.34548C12.0625 5.83901 12.0625 6.62867 12.5312 7.08931L16 10.7744H5.15625C4.75 10.7744 4.40625 10.9718 4.1875 11.3008C4.0625 11.4982 4 11.7286 4 11.9918C4 12.3208 4.125 12.6498 4.34375 12.8472C4.5625 13.0776 4.84375 13.2092 5.15625 13.2092H16L12.5312 16.8942C12.0625 17.3549 12.0625 18.1445 12.5312 18.6381C12.75 18.8684 13.0625 19 13.3438 19C13.6562 19 13.9375 18.8684 14.1875 18.6381L19.6562 12.8472L19.6875 12.8143L19.75 12.7485C19.75 12.7156 19.7812 12.7156 19.7812 12.6827Z" fill="black"/>
</svg>

<svg xmlns="http://www.w3.org/2000/svg" width="24" height="24" viewBox="0 0 24 24"><path d="M19.781 12.683c.031-.033.031-.066.063-.099 0 0 .031-.033.031-.066s.031-.033.031-.066v-.033s.032-.032.032-.065.031-.066.031-.099v-.099c0-.033 0-.033.031-.065v-.198c-.031-.033-.031-.066-.031-.099v-.065c0-.033-.031-.066-.031-.099s-.032-.066-.032-.066v-.033c0-.033-.031-.066-.031-.066 0-.033-.031-.066-.031-.066-.032-.032-.032-.065-.063-.098 0-.033-.031-.033-.031-.066l-.062-.066-.032-.033-5.468-5.791c-.469-.46-1.219-.46-1.657 0-.469.494-.469 1.284 0 1.744L16 10.774H5.156c-.406 0-.75.198-.968.527a1.255 1.255 0 0 0-.188.691c0 .329.125.658.344.855.218.231.5.362.812.362H16l-3.469 3.685c-.469.461-.469 1.251 0 1.744.219.23.531.362.813.362.312 0 .594-.132.844-.362l5.468-5.791.032-.033.062-.066c0-.032.031-.032.031-.065Z"/></svg>
